X:962
T:Hame o' Mine
C:Joe Buchanan's Scottish Tome - Page 560.2
I:560 2
Z:Carl Allison
R:Waltz
L:1/4
M:3/4
K:C
"C"G3 | "C7"E2 F | G3 | "C7"e2 d | "F"c3 | "G7"B2 A | G "C"E2- | E2 G |
"F"A3 | A2 B | "C"c3- | c B c | "Am"e3 | "D7"d2 ^c | "G"e3- | d2 G |
"C"G3 | "C7"E2 F | "C"G3 | "C7"e2 d | "F"c3 | "G7"B2 A | "C"G E2- | E2 G |
"F"A3 | "G7"B2 c | "C"G3 | "Am"f2 e | "D7"d3 | "G7"G2 B | "C"c3- | c2 d |
"G"d3 | "G7"B2 c | "G"d3 | d ^c d | "Am"f3 | "D7"e2 d | "C"c G2- | G2 G |
"F"A3 | "G7"B2 c | "C"c3 | c B c | "Am"e3 | "D7"d2 c | "G"d3- | d2 G |
"C"G3 | "C7"E2 F | "C"G3 | "C7"e2 d | "F"c3 | "G7"B2 A | G "C"E2- | E G |
"F"A3 | "G7"B2 c | "C"G3 | "Am"f2 e | "D7"d3 | "G7"A2 B | "C"c3 | c2 |]

